libs/icons/src/svg/facebook-2.svg

<svg width="16" height="16" viewBox="0 0 16 16" fill="none" xmlns="http://www.w3.org/2000/svg">
<g clip-path="url(#clip0_134_219)">
<path d="M16 8.04803C15.9998 6.51923 15.5616 5.02249 14.7372 3.73501C13.9128 2.44753 12.7368 1.42322 11.3483 0.783362C9.95985 0.1435 8.41713 -0.0851239 6.90277 0.124556C5.38842 0.334237 3.96585 0.97344 2.8035 1.96649C1.64114 2.95955 0.787659 4.26486 0.344106 5.7279C-0.0994477 7.19095 -0.114502 8.75045 0.300725 10.2218C0.715953 11.6931 1.54407 13.0147 2.68704 14.03C3.83002 15.0453 5.23998 15.7118 6.75 15.9507V10.3607H4.71867V8.04803H6.75V6.28536C6.75 4.2807 7.94467 3.17269 9.77133 3.17269C10.3714 3.1813 10.9701 3.23344 11.5627 3.3287V5.29803H10.5533C10.2495 5.2577 9.94208 5.33968 9.69867 5.52595C9.45526 5.71223 9.2958 5.98754 9.25533 6.29136C9.2439 6.37644 9.24211 6.46254 9.25 6.54803V8.04803H11.4667L11.112 10.3607H9.24533V15.9507C11.128 15.654 12.8429 14.6949 14.0813 13.2461C15.3196 11.7973 16 9.95395 16 8.04803Z" fill="#202327"/>
</g>
<defs>
<clipPath id="clip0_134_219">
<rect width="16" height="16" fill="white"/>
</clipPath>
</defs>
</svg>

<svg xmlns="http://www.w3.org/2000/svg" viewBox="0 0 16 16" class="sageicon"><path d="M16 8.048a8 8 0 1 0-9.25 7.903v-5.59H4.719V8.048H6.75V6.285c0-2.004 1.195-3.112 3.021-3.112.6.008 1.2.06 1.792.156v1.969h-1.01a1.156 1.156 0 0 0-1.303 1.25v1.5h2.217l-.355 2.313H9.245v5.59A8 8 0 0 0 16 8.048Z"/></svg>
